X: 11
T:Miko Doyle's
T:Old Favourite, The
R:slide
H:Also played in A, #60
D:Sean Ryan: Siuil Uait
Z:id:hn-slide-22
O:Gerry's Jig #2
Q:3/8=120
M:6/8
L:1/8
K:G
B3  BAB|dBA G2d|ded d2B|ded B2A|B3 BAB|dBA G2d|
ded B2A|1 G3 G3:|2 G3 GBd||:g3 f3|efe d2B|ded d2B|
ded B2d|g3 f3|efe d2B|1ded B2A|G3 GBd:|2 ded ded|ded ded|
